alecto/img/svg/portfolio.svg

<svg xmlns="http://www.w3.org/2000/svg" width="32" height="29"><path d="M24 5.388V2.393a1.998 1.998 0 00-2-1.995H10c-1.105 0-2 .893-2 1.995v2.995H2c-1.105 0-2 .894-2 1.997v18.964c0 1.103.895 1.997 2 1.997h28c1.104 0 2-.894 2-1.997V7.385a1.999 1.999 0 00-2-1.997h-6zM11 3.392h10v1.996H11V3.392zm18 4.991v5.989H19v-.999h-6v.999H3V8.383h26zM3 25.351v-7.985h10v.999h6v-.999h10v7.985H3z"/></svg>

<svg 
 xmlns="http://www.w3.org/2000/svg"
 xmlns:xlink="http://www.w3.org/1999/xlink"
 width="32px" height="29px">
<path
 d="M24.000,5.388 L24.000,2.393 C24.000,1.291 23.104,0.398 22.000,0.398 L10.000,0.398 C8.895,0.398 8.000,1.291 8.000,2.393 L8.000,5.388 L2.000,5.388 C0.895,5.388 -0.000,6.282 -0.000,7.385 L-0.000,26.349 C-0.000,27.452 0.895,28.346 2.000,28.346 L30.000,28.346 C31.104,28.346 32.000,27.452 32.000,26.349 L32.000,7.385 C32.000,6.282 31.104,5.388 30.000,5.388 L24.000,5.388 ZM11.000,3.392 L21.000,3.392 L21.000,5.388 L11.000,5.388 L11.000,3.392 ZM29.000,8.383 L29.000,14.372 L19.000,14.372 L19.000,13.373 L13.000,13.373 L13.000,14.372 L3.000,14.372 L3.000,8.383 L29.000,8.383 ZM3.000,25.351 L3.000,17.366 L13.000,17.366 L13.000,18.365 L19.000,18.365 L19.000,17.366 L29.000,17.366 L29.000,25.351 L3.000,25.351 Z"/>
</svg>
